X:1020
T:McHugh's
R:reel
Z:id:hn-reel-1020
M:C|
L:1/8
K:Edor
B2BA BdeB | dBAG FDD2 | B2BA BdeB |1 dBAF E3A :|2 dBAF E3d ||
|: edBd efge | fdad fddf |1 edBd efge | fedf e3d :|
[2 g2ge f2fd | edBd e3d ||
P:version 2
B3A B2eB | dBAF DEFA | B2BA B2ef | dBAd BDFA |
B3A Bdef | dBAF DEFA | B2BA Bdef | dBAd BEEf ||
edBd efga | fdda bdad | edBd efga | fdaf e3f |
edBd efga | ~f3a bfaf | g3e ~f3d | edBd e2dc ||

